Sources/FrostedUI/Resources/Icons.xcassets/messageFilled20.imageset/message-filled-20.svg

<svg width="20" height="20" viewBox="0 0 20 20" fill="none" xmlns="http://www.w3.org/2000/svg" data-fui-icon="true">
  <path
    d="M9.99963 0.666626C15.1528 0.666626 19.3334 4.83855 19.3336 9.98792C19.3336 15.1374 15.153 19.3102 9.99963 19.3102C8.65607 19.3101 7.37626 19.0258 6.21936 18.5133C6.21724 18.5124 6.2135 18.5114 6.2135 18.5114L3.73987 19.235C1.91307 19.7696 0.220045 18.0569 0.78772 16.235L1.51917 13.8864L1.51721 13.8824C0.970564 12.6963 0.666626 11.3759 0.666626 9.98792C0.666828 4.83866 4.84657 0.666801 9.99963 0.666626Z"
    fill="currentColor"
  />
</svg>

<svg xmlns="http://www.w3.org/2000/svg" width="20" height="20" fill="none" data-fui-icon="true" viewBox="0 0 20 20"><path fill="currentColor" d="M10 .667c5.153 0 9.333 4.172 9.334 9.32 0 5.15-4.181 9.323-9.334 9.323a9.3 9.3 0 0 1-3.786-.799l-2.474.724c-1.827.535-3.52-1.178-2.952-3l.731-2.349-.002-.004a9.3 9.3 0 0 1-.85-3.894C.667 4.838 4.847.667 10 .667"/></svg>
